ACP3/Modules/ACP3/System/Resources/Assets/svgs/solid/circle-dollar-to-slot.svg

<svg xmlns="http://www.w3.org/2000/svg" viewBox="0 0 512 512"><!--! Font Awesome Free 6.2.0 by @fontawesome - https://fontawesome.com License - https://fontawesome.com/license/free (Icons: CC BY 4.0, Fonts: SIL OFL 1.1, Code: MIT License) Copyright 2022 Fonticons, Inc. --><path d="M326.7 403.7c-22.1 8-45.9 12.3-70.7 12.3s-48.7-4.4-70.7-12.3c-.3-.1-.5-.2-.8-.3c-30-11-56.8-28.7-78.6-51.4C70 314.6 48 263.9 48 208C48 93.1 141.1 0 256 0S464 93.1 464 208c0 55.9-22 106.6-57.9 144c-1 1-2 2.1-3 3.1c-21.4 21.4-47.4 38.1-76.3 48.6zM256 91.9c-11.1 0-20.1 9-20.1 20.1v6c-5.6 1.2-10.9 2.9-15.9 5.1c-15 6.8-27.9 19.4-31.1 37.7c-1.8 10.2-.8 20 3.4 29c4.2 8.8 10.7 15 17.3 19.5c11.6 7.9 26.9 12.5 38.6 16l2.2 .7c13.9 4.2 23.4 7.4 29.3 11.7c2.5 1.8 3.4 3.2 3.8 4c.3 .8 .9 2.6 .2 6.7c-.6 3.5-2.5 6.4-8 8.8c-6.1 2.6-16 3.9-28.8 1.9c-6-1-16.7-4.6-26.2-7.9l0 0 0 0 0 0c-2.2-.7-4.3-1.5-6.4-2.1c-10.5-3.5-21.8 2.2-25.3 12.7s2.2 21.8 12.7 25.3c1.2 .4 2.7 .9 4.4 1.5c7.9 2.7 20.3 6.9 29.8 9.1V304c0 11.1 9 20.1 20.1 20.1s20.1-9 20.1-20.1v-5.5c5.4-1 10.5-2.5 15.4-4.6c15.7-6.7 28.4-19.7 31.6-38.7c1.8-10.4 1-20.3-3-29.4c-3.9-9-10.2-15.6-16.9-20.5c-12.2-8.8-28.3-13.7-40.4-17.4l-.8-.2c-14.2-4.3-23.8-7.3-29.9-11.4c-2.6-1.8-3.4-3-3.6-3.5c-.2-.3-.7-1.6-.1-5c.3-1.9 1.9-5.2 8.2-8.1c6.4-2.9 16.4-4.5 28.6-2.6c4.3 .7 17.9 3.3 21.7 4.3c10.7 2.8 21.6-3.5 24.5-14.2s-3.5-21.6-14.2-24.5c-4.4-1.2-14.4-3.2-21-4.4V112c0-11.1-9-20.1-20.1-20.1zM48 352H64c19.5 25.9 44 47.7 72.2 64H64v32H256 448V416H375.8c28.2-16.3 52.8-38.1 72.2-64h16c26.5 0 48 21.5 48 48v64c0 26.5-21.5 48-48 48H48c-26.5 0-48-21.5-48-48V400c0-26.5 21.5-48 48-48z"/></svg>

<svg xmlns="http://www.w3.org/2000/svg" viewBox="0 0 512 512"><!--! Font Awesome Free 6.1.2 by @fontawesome - https://fontawesome.com License - https://fontawesome.com/license/free (Icons: CC BY 4.0, Fonts: SIL OFL 1.1, Code: MIT License) Copyright 2022 Fonticons, Inc. --><path d="M326.7 403.7C304.7 411.6 280.8 416 256 416C231.2 416 207.3 411.6 185.3 403.7C184.1 403.6 184.7 403.5 184.5 403.4C154.4 392.4 127.6 374.6 105.9 352C70.04 314.6 48 263.9 48 208C48 93.12 141.1 0 256 0C370.9 0 464 93.12 464 208C464 263.9 441.1 314.6 406.1 352C405.1 353 404.1 354.1 403.1 355.1C381.7 376.4 355.7 393.2 326.7 403.7L326.7 403.7zM235.9 111.1V118C230.3 119.2 224.1 120.9 220 123.1C205.1 129.9 192.1 142.5 188.9 160.8C187.1 171 188.1 180.9 192.3 189.8C196.5 198.6 203 204.8 209.6 209.3C221.2 217.2 236.5 221.8 248.2 225.3L250.4 225.9C264.4 230.2 273.8 233.3 279.7 237.6C282.2 239.4 283.1 240.8 283.4 241.7C283.8 242.5 284.4 244.3 283.7 248.3C283.1 251.8 281.2 254.8 275.7 257.1C269.6 259.7 259.7 261 246.9 259C240.9 258 230.2 254.4 220.7 251.2C218.5 250.4 216.3 249.7 214.3 249C203.8 245.5 192.5 251.2 189 261.7C185.5 272.2 191.2 283.5 201.7 286.1C202.9 287.4 204.4 287.9 206.1 288.5C213.1 291.2 226.4 295.4 235.9 297.6V304C235.9 315.1 244.9 324.1 255.1 324.1C267.1 324.1 276.1 315.1 276.1 304V298.5C281.4 297.5 286.6 295.1 291.4 293.9C307.2 287.2 319.8 274.2 323.1 255.2C324.9 244.8 324.1 234.8 320.1 225.7C316.2 216.7 309.9 210.1 303.2 205.3C291.1 196.4 274.9 191.6 262.8 187.9L261.1 187.7C247.8 183.4 238.2 180.4 232.1 176.2C229.5 174.4 228.7 173.2 228.5 172.7C228.3 172.3 227.7 171.1 228.3 167.7C228.7 165.7 230.2 162.4 236.5 159.6C242.1 156.7 252.9 155.1 265.1 156.1C269.5 157.7 283 160.3 286.9 161.3C297.5 164.2 308.5 157.8 311.3 147.1C314.2 136.5 307.8 125.5 297.1 122.7C292.7 121.5 282.7 119.5 276.1 118.3V112C276.1 100.9 267.1 91.9 256 91.9C244.9 91.9 235.9 100.9 235.9 112V111.1zM48 352H63.98C83.43 377.9 108 399.7 136.2 416H64V448H448V416H375.8C403.1 399.7 428.6 377.9 448 352H464C490.5 352 512 373.5 512 400V464C512 490.5 490.5 512 464 512H48C21.49 512 0 490.5 0 464V400C0 373.5 21.49 352 48 352H48z"/></svg>
